X: 305815
T: COTILLION No. 30. TOM MOORE'S SETT tune 4
C:
%R: jig
B: Elias Howe "The Musician's Companion" Part 3 1844 p.143 #2
S: http://imslp.org/wiki/The_Musician's_Companion_(Howe,_Elias)
Z: 2015 John Chambers <jc:trillian.mit.edu>
M: 6/8
L: 1/8
K: G
% - - - - - - - - - - - - - - - - - - - - - - - - - - - - -
B2B c2B | AGA B2G | G(cB) e2d | ^c=cB [B2D2][AD] |\
B2B (dc)B | AGA(B2G) | Bed ^c2b | age d2z H|]
(d2g) d2c | (af)d (c2A) | (Bdg) af^d | e(AG) (G2F) |\
B2B dcB | (AGA) (B2G) | (Bd)g (ec)A | G2^F [G2G,2]"^D.C."z |]
% - - - - - - - - - - Dance description - - - - - - - - - -
%%begintext align
%% First lady swing the gent on her right with right hand,
%% the next gent with left hand, &c.,
%% then swing partner last,
%% balance partner.
%% The others the same.
%%endtext
% - - - - - - - - - - - - - - - - - - - - - - - - - - - - -
%%sep 1 1 300


